printrun/assets/toolbar/zoom_in_w.svg

<?xml version="1.0" encoding="UTF-8"?>
<svg id="icon" xmlns="http://www.w3.org/2000/svg" width="128" height="128" viewBox="0 0 128 128">
  <path d="M117.329,103.959l-26.184-26.184c-.328-.328-.38-.834-.136-1.228,5.693-9.175,7.891-20.106,6.173-30.785-1.759-10.94-7.504-20.841-16.126-27.8-8.623-6.958-19.515-10.479-30.579-9.887-11.064.593-21.518,5.258-29.349,13.096-7.831,7.838-12.485,18.297-13.066,29.361-.581,11.065,2.951,21.953,9.917,30.57,6.967,8.616,16.874,14.35,27.814,16.099,10.679,1.706,21.607-.502,30.776-6.203.395-.245.903-.193,1.231.136l26.168,26.182c2.625,2.604,6.652,3.47,10.297,1.863,1.048-.462,1.978-1.157,2.788-1.966l.164-.164c.81-.81,1.506-1.74,1.969-2.788,1.612-3.644.746-7.677-1.859-10.303h.003ZM77.041,77.055c-6.41,6.412-15.104,10.014-24.17,10.015-9.066,0-17.761-3.6-24.173-10.01-6.411-6.411-10.012-15.105-10.012-24.17s3.601-17.761,10.012-24.17c6.412-6.411,15.106-10.011,24.173-10.01,9.066,0,17.761,3.603,24.17,10.015,6.408,6.41,10.007,15.102,10.007,24.166s-3.599,17.757-10.007,24.168v-.002Z" style="fill: #dfe2e5;"/>
  <path d="M66.077,46.776h-5.834c-.552,0-1-.448-1-1v-5.982c.004-1.35-.533-2.647-1.491-3.599-.957-.952-2.257-1.483-3.607-1.471h-2.246c-1.347-.011-2.642.52-3.594,1.474-.951.953-1.479,2.25-1.465,3.597v5.995c0,.552-.448,1-1,1h-6.049c-1.362-.004-2.672.531-3.643,1.489-.969.957-1.522,2.259-1.536,3.623v2.219c.032,1.352.591,2.639,1.559,3.584.968.945,2.267,1.474,3.62,1.473h6.008c.552,0,1,.448,1,1v5.847c-.011,1.352.525,2.652,1.484,3.603.96.952,2.263,1.477,3.615,1.455h2.233,0c1.348.01,2.646-.518,3.603-1.468s1.496-2.243,1.496-3.591v-5.847c0-.552.448-1,1-1h5.834,0c1.351.004,2.647-.533,3.6-1.49.952-.958,1.483-2.257,1.471-3.608v-2.179c.022-1.355-.502-2.66-1.453-3.625-.951-.964-2.25-1.504-3.604-1.5h0Z" style="fill: #dfe2e5;"/>
</svg>

<?xml version="1.0" encoding="UTF-8" standalone="no"?>
<!DOCTYPE svg PUBLIC "-//W3C//DTD SVG 1.1//EN" "http://www.w3.org/Graphics/SVG/1.1/DTD/svg11.dtd">
<svg width="100%" height="100%" viewBox="0 0 128 128" version="1.1" xmlns="http://www.w3.org/2000/svg" xmlns:xlink="http://www.w3.org/1999/xlink" xml:space="preserve" xmlns:serif="http://www.serif.com/" style="fill-rule:evenodd;clip-rule:evenodd;stroke-linejoin:round;stroke-miterlimit:2;">
    <path d="M117.33,103.96L90.59,77.22C96.6,67.91 98.95,56.71 97.19,45.77C95.43,34.83 89.69,24.93 81.06,17.97C72.44,11.01 61.54,7.49 50.48,8.08C39.42,8.67 28.96,13.34 21.13,21.18C13.3,29.02 8.65,39.48 8.06,50.54C7.48,61.6 11.01,72.49 17.98,81.11C24.95,89.73 34.85,95.46 45.79,97.21C56.73,98.96 67.93,96.6 77.24,90.58L103.97,117.32C105.7,119.03 108.03,119.99 110.46,119.99C112.89,119.99 115.22,119.03 116.95,117.32L117.33,116.94C119.04,115.21 120,112.88 120,110.45C120,108.02 119.04,105.69 117.33,103.96ZM77.04,77.06C70.63,83.47 61.94,87.07 52.87,87.07C43.8,87.07 35.11,83.47 28.7,77.06C22.29,70.65 18.69,61.95 18.69,52.89C18.69,43.83 22.29,35.13 28.7,28.72C35.11,22.31 43.81,18.71 52.87,18.71C61.94,18.71 70.63,22.31 77.04,28.72C83.45,35.13 87.05,43.82 87.05,52.89C87.05,61.96 83.45,70.65 77.04,77.06Z" style="fill:white;fill-rule:nonzero;"/>
    <path d="M66.09,46.78L59.25,46.78L59.25,39.8C59.25,38.45 58.72,37.15 57.76,36.2C56.8,35.25 55.5,34.72 54.15,34.73L51.9,34.73C50.55,34.72 49.26,35.25 48.31,36.2C47.36,37.15 46.83,38.45 46.85,39.8L46.85,46.8L39.8,46.8C38.44,46.8 37.13,47.33 36.16,48.29C35.19,49.25 34.64,50.55 34.62,51.91L34.62,54.13C34.65,55.48 35.21,56.77 36.18,57.71C37.15,58.65 38.45,59.18 39.8,59.18L46.81,59.18L46.81,66.03C46.8,67.38 47.33,68.68 48.29,69.63C49.25,70.58 50.55,71.11 51.91,71.09L54.14,71.09C55.49,71.1 56.79,70.57 57.74,69.62C58.69,68.67 59.24,67.38 59.24,66.03L59.24,59.18L66.07,59.18C67.42,59.18 68.72,58.65 69.67,57.69C70.62,56.73 71.15,55.43 71.14,54.08L71.14,51.9C71.16,50.55 70.64,49.24 69.69,48.28C68.74,47.32 67.44,46.78 66.09,46.78Z" style="fill:white;fill-rule:nonzero;"/>
</svg>
